src/symbolic/actions/mail-mark-notjunk-symbolic.svg

<?xml version="1.0" encoding="UTF-8" standalone="no"?>
<svg xmlns:dc="http://purl.org/dc/elements/1.1/" xmlns:cc="http://creativecommons.org/ns#" xmlns:rdf="http://www.w3.org/1999/02/22-rdf-syntax-ns#" xmlns:svg="http://www.w3.org/2000/svg" xmlns="http://www.w3.org/2000/svg" xmlns:sodipodi="http://sodipodi.sourceforge.net/DTD/sodipodi-0.dtd" xmlns:inkscape="http://www.inkscape.org/namespaces/inkscape" height="16" width="16" version="1.1" id="svg6" sodipodi:docname="mail-mark-notjunk.svg" inkscape:version="0.92.3 (2405546, 2018-03-11)">
  <metadata id="metadata12">
    <rdf:RDF>
      <cc:Work rdf:about="">
        <dc:format>image/svg+xml</dc:format>
        <dc:type rdf:resource="http://purl.org/dc/dcmitype/StillImage" />
      </cc:Work>
    </rdf:RDF>
  </metadata>
  <defs id="defs10" />
  <sodipodi:namedview pagecolor="#ffffff" bordercolor="#666666" borderopacity="1" objecttolerance="10" gridtolerance="10" guidetolerance="10" inkscape:pageopacity="0" inkscape:pageshadow="2" inkscape:window-width="1920" inkscape:window-height="962" id="namedview8" showgrid="true" inkscape:zoom="29.5" inkscape:cx="5.7872722" inkscape:cy="6.3685474" inkscape:window-x="0" inkscape:window-y="30" inkscape:window-maximized="1" inkscape:current-layer="svg6">
    <inkscape:grid type="xygrid" id="grid826" />
  </sodipodi:namedview>
  <path style="color:#000000;font-weight:400;line-height:normal;font-family:Sans;-inkscape-font-specification:Sans;text-indent:0;text-align:start;text-decoration:none;text-decoration-line:none;text-transform:none;overflow:visible;fill:#666666;marker:none" d="M 5.2207031 1 L 4.90625 1.28125 L 1.28125 4.90625 L 1 5.21875 L 1 10.779297 L 1.28125 11.09375 L 4.90625 14.71875 L 5.21875 14.998047 L 10.78125 14.998047 L 11.09375 14.71875 L 14.71875 11.09375 L 15 10.779297 L 15 5.2207031 L 14.720703 4.90625 L 11.09375 1.28125 L 10.78125 1.0019531 L 5.625 1.0019531 L 5.2207031 1 z M 4 7 L 12 7 L 12 9 L 4 9 L 4 7 z " id="path2" />
</svg>

<svg xmlns="http://www.w3.org/2000/svg" height="16" width="16"><path style="line-height:normal;-inkscape-font-specification:Sans;text-indent:0;text-align:start;text-decoration-line:none;text-transform:none;marker:none" d="M5.22 1l-.314.281-3.625 3.625L1 5.22v5.56l.281.315 3.625 3.625.313.279h5.562l.313-.28 3.625-3.624.281-.315V5.221l-.28-.315-3.626-3.625-.313-.279H5.625L5.221 1zM4 7h8v2H4V7z" color="#000" font-weight="400" font-family="Sans" overflow="visible" fill="#5d656b"/></svg>
